images/icon-food-pot.svg

<svg width="87" height="87" viewBox="0 0 87 87" fill="none" xmlns="http://www.w3.org/2000/svg">
<mask id="mask0_2_18" style="mask-type:alpha" maskUnits="userSpaceOnUse" x="0" y="0" width="87" height="87">
<path d="M18.2958 53.5948C17.8698 54.213 18.0255 55.0595 18.6436 55.4855C19.2618 55.9115 20.1084 55.7559 20.5344 55.1377C20.5434 55.1248 20.552 55.1115 20.5605 55.0983C25.2857 47.9462 33.2858 43.6441 41.8578 43.6455C42.6086 43.6455 43.2172 43.0369 43.2172 42.2861C43.2172 41.5354 42.6086 40.9268 41.8578 40.9268C32.3747 40.9244 23.5238 45.683 18.2958 53.5948Z" fill="black"/>
<path d="M85.6406 70.833H77.4844V69.1909C77.516 60.384 73.9245 51.9518 67.5528 45.8722C67.0248 45.3383 66.1642 45.3335 65.6303 45.8613C65.0964 46.3892 65.0916 47.2499 65.6194 47.7838C65.6354 47.7999 65.6517 47.8157 65.6685 47.831C71.5045 53.4002 74.794 61.124 74.7655 69.1909V70.833H12.2344V69.1909C12.2524 52.8378 25.5048 39.5854 41.8579 39.5674H45.1421C47.6673 39.5657 50.1824 39.8855 52.6268 40.5189C53.3461 40.7342 54.1036 40.3257 54.3189 39.6065C54.5342 38.8872 54.1257 38.1297 53.4064 37.9144C53.3735 37.9045 53.34 37.8959 53.3064 37.8886C51.4289 37.4043 49.5117 37.0899 47.578 36.9492V32.7705C47.578 32.0198 46.9693 31.4111 46.2186 31.4111H40.7811C40.0304 31.4111 39.4217 32.0198 39.4217 32.7705V36.9492C22.5643 38.2403 9.53771 52.284 9.51546 69.1909V70.833H1.35938C0.60866 70.833 0 71.4417 0 72.1924C0 72.9431 0.60866 73.5518 1.35938 73.5518H85.6406C86.3913 73.5518 87 72.9431 87 72.1924C87 71.4417 86.3913 70.833 85.6406 70.833ZM42.1406 34.1299H44.8594V36.8486H42.1406V34.1299Z" fill="black"/>
<path d="M57.5478 30.382C58.8134 31.5116 59.8125 32.4034 59.8125 34.2236C59.8125 36.0438 58.8134 36.9355 57.5478 38.072C55.6239 39.4164 54.4477 41.5904 54.375 43.9363C54.375 44.687 54.9837 45.2957 55.7344 45.2957C56.4851 45.2957 57.0938 44.687 57.0938 43.9363C57.0938 42.1161 58.0929 41.2244 59.3585 40.0947C61.2835 38.7483 62.4597 36.5717 62.5312 34.2236C62.4597 31.8758 61.2835 29.6997 59.3585 28.3538C58.0929 27.2241 57.0938 26.3324 57.0938 24.5136C57.0938 22.6947 58.0929 21.8043 59.3585 20.6747C61.2835 19.3301 62.4599 17.1547 62.5312 14.8076C62.5312 14.0569 61.9226 13.4482 61.1719 13.4482C60.4212 13.4482 59.8125 14.0569 59.8125 14.8076C59.8125 16.6251 58.8134 17.5155 57.5478 18.6451C55.6224 19.9902 54.446 22.1661 54.375 24.5136C54.4467 26.8609 55.6229 29.0365 57.5478 30.382Z" fill="black"/>
<path d="M65.704 30.382C66.9696 31.5116 67.9688 32.4034 67.9688 34.2236C67.9688 36.0438 66.9696 36.9423 65.704 38.0665C63.7786 39.4121 62.6023 41.5883 62.5312 43.9363C62.5312 44.687 63.1399 45.2957 63.8906 45.2957C64.6413 45.2957 65.25 44.687 65.25 43.9363C65.25 42.1161 66.2491 41.2244 67.5147 40.0947C69.4398 38.7483 70.616 36.5717 70.6875 34.2236C70.616 31.8758 69.4398 29.6997 67.5147 28.3538C66.2491 27.2241 65.25 26.3324 65.25 24.5136C65.25 22.6947 66.2491 21.8043 67.5147 20.6747C69.4398 19.3301 70.6161 17.1547 70.6875 14.8076C70.6875 14.0569 70.0788 13.4482 69.3281 13.4482C68.5774 13.4482 67.9688 14.0569 67.9688 14.8076C67.9688 16.6251 66.9696 17.5155 65.704 18.6451C63.7786 19.9902 62.6023 22.1661 62.5312 24.5136C62.603 26.8609 63.7792 29.0365 65.704 30.382Z" fill="black"/>
<path d="M73.8603 30.382C75.1259 31.5116 76.125 32.4034 76.125 34.2236C76.125 36.0438 75.1259 36.9423 73.8603 38.0665C71.9349 39.4121 70.7585 41.5883 70.6875 43.9363C70.6875 44.687 71.2962 45.2957 72.0469 45.2957C72.7976 45.2957 73.4062 44.687 73.4062 43.9363C73.4062 42.1161 74.4054 41.2244 75.671 40.0947C77.596 38.7483 78.7722 36.5717 78.8438 34.2236C78.7722 31.8758 77.596 29.6997 75.671 28.3538C74.4054 27.2241 73.4062 26.3324 73.4062 24.5136C73.4062 22.6947 74.4054 21.8043 75.671 20.6747C77.596 19.3301 78.7724 17.1547 78.8438 14.8076C78.8438 14.0569 78.2351 13.4482 77.4844 13.4482C76.7337 13.4482 76.125 14.0569 76.125 14.8076C76.125 16.6251 75.1259 17.5155 73.8603 18.6451C71.9349 19.9902 70.7585 22.1661 70.6875 24.5136C70.7592 26.8609 71.9354 29.0365 73.8603 30.382Z" fill="black"/>
</mask>
<g mask="url(#mask0_2_18)">
<rect x="-16" y="-13" width="126" height="104" fill="#BC9060"/>
</g>
</svg>

<svg xmlns="http://www.w3.org/2000/svg" width="87" height="87" fill="none"><mask id="a" width="87" height="87" x="0" y="0" maskUnits="userSpaceOnUse" style="mask-type:alpha"><path fill="#000" d="M18.296 53.595a1.36 1.36 0 1 0 2.265 1.503 25.52 25.52 0 0 1 21.297-11.453 1.36 1.36 0 1 0 0-2.718 28.233 28.233 0 0 0-23.562 12.668Z"/><path fill="#000" d="M85.64 70.833h-8.156v-1.642a32.072 32.072 0 0 0-9.931-23.319 1.36 1.36 0 1 0-1.885 1.959 29.382 29.382 0 0 1 9.097 21.36v1.642h-62.53v-1.642c.017-16.353 13.27-29.606 29.623-29.624h3.284c2.525-.001 5.04.319 7.485.952a1.36 1.36 0 1 0 .68-2.63 32.327 32.327 0 0 0-5.729-.94v-4.178c0-.751-.609-1.36-1.36-1.36h-5.437c-.75 0-1.36.609-1.36 1.36v4.178C22.565 38.24 9.539 52.284 9.516 69.191v1.642H1.36a1.36 1.36 0 0 0 0 2.719h84.282a1.36 1.36 0 0 0 0-2.719ZM42.14 34.13h2.72v2.719h-2.72v-2.72Z"/><path fill="#000" d="M57.548 30.382c1.265 1.13 2.264 2.021 2.264 3.842 0 1.82-.999 2.712-2.264 3.848a7.435 7.435 0 0 0-3.173 5.864 1.36 1.36 0 0 0 2.719 0c0-1.82.999-2.712 2.264-3.841a7.441 7.441 0 0 0 3.173-5.871 7.438 7.438 0 0 0-3.172-5.87c-1.266-1.13-2.265-2.022-2.265-3.84 0-1.82.999-2.71 2.264-3.84a7.432 7.432 0 0 0 3.173-5.866 1.36 1.36 0 0 0-2.718 0c0 1.817-1 2.707-2.265 3.837a7.433 7.433 0 0 0-3.173 5.869 7.437 7.437 0 0 0 3.173 5.868Z"/><path fill="#000" d="M65.704 30.382c1.266 1.13 2.265 2.021 2.265 3.842 0 1.82-1 2.718-2.265 3.843a7.436 7.436 0 0 0-3.173 5.87 1.36 1.36 0 0 0 2.719 0c0-1.82 1-2.713 2.265-3.842a7.441 7.441 0 0 0 3.172-5.871 7.438 7.438 0 0 0-3.172-5.87c-1.266-1.13-2.265-2.022-2.265-3.84 0-1.82 1-2.71 2.265-3.84a7.432 7.432 0 0 0 3.172-5.866 1.36 1.36 0 0 0-2.718 0c0 1.817-1 2.707-2.265 3.837a7.433 7.433 0 0 0-3.173 5.869 7.438 7.438 0 0 0 3.173 5.868ZM73.86 30.382c1.266 1.13 2.265 2.021 2.265 3.842 0 1.82-1 2.718-2.265 3.843a7.435 7.435 0 0 0-3.172 5.87 1.36 1.36 0 0 0 2.718 0c0-1.82 1-2.713 2.265-3.842a7.442 7.442 0 0 0 3.173-5.871 7.439 7.439 0 0 0-3.173-5.87c-1.266-1.13-2.265-2.022-2.265-3.84 0-1.82 1-2.71 2.265-3.84a7.432 7.432 0 0 0 3.173-5.866 1.36 1.36 0 0 0-2.719 0c0 1.817-1 2.707-2.265 3.837a7.433 7.433 0 0 0-3.172 5.869 7.437 7.437 0 0 0 3.172 5.868Z"/></mask><g mask="url(#a)"><path fill="#BC9060" d="M-16-13h126V91H-16z"/></g></svg>
